app/assets/v2/images/mission/interact/swiss_army.svg

<svg xmlns="http://www.w3.org/2000/svg" viewBox="0 0 66.01 66"><g data-name="Layer 2"><path d="M48.06 53.84a11 11 0 1 1-21.93 0V16.15a11 11 0 0 1 19.48-6.91l.22.3a10.82 10.82 0 0 1 2.23 6.61z" fill="#00ed92"/><path d="M65.66 29.92L46.77 6.15c-.2-.28-.38-.54-.58-.78A14.07 14.07 0 0 0 35.1 0a14.17 14.17 0 0 0-14.16 14.15v19.21L11.2 21.52a1.58 1.58 0 0 0-1.2-.59H1.59A1.6 1.6 0 0 0 0 22.53v8.37a1.65 1.65 0 0 0 .36 1l23.79 28.95a1.14 1.14 0 0 0 .19.19 14.15 14.15 0 0 0 24.91-9.2v-19l.79.55a12.09 12.09 0 0 0 6.9 2.18H57A12.16 12.16 0 0 0 65.54 32a1.59 1.59 0 0 0 .12-2.08zm-44.72 22L3.19 30.33v-6.21h6l11.75 14.27zm25.12-.09a11 11 0 1 1-21.93 0V14.15a11 11 0 0 1 19.48-6.91l.22.3a10.82 10.82 0 0 1 2.23 6.61zM61.74 31a9.21 9.21 0 0 1-11.83-2l-.66-.83v-13.8l13 16.34z"/><path d="M36.69 49.25h4.69a1.6 1.6 0 0 0 0-3.19h-4.69v-4.69a1.6 1.6 0 0 0-3.19 0v4.69h-4.69a1.6 1.6 0 0 0 0 3.19h4.69v4.69a1.6 1.6 0 0 0 3.19 0zM35.1 8.37a5.78 5.78 0 1 0 5.78 5.78 5.8 5.8 0 0 0-5.78-5.78zm0 8.38a2.6 2.6 0 1 1 2.59-2.6 2.61 2.61 0 0 1-2.59 2.6z"/></g></svg>

<svg xmlns="http://www.w3.org/2000/svg" viewBox="0 0 66.01 66"><defs><style>.cls-1{fill:#00ed92;}</style></defs><title>swiss_army</title><g id="Layer_2" data-name="Layer 2"><g id="Layer_2-2" data-name="Layer 2"><path class="cls-1" d="M48.06,53.84a11,11,0,1,1-21.93,0V16.15A11,11,0,0,1,45.61,9.24l.22.3a10.82,10.82,0,0,1,2.23,6.61Z"/><path d="M65.66,29.92,46.77,6.15c-.2-.28-.38-.54-.58-.78A14.07,14.07,0,0,0,35.1,0h0A14.17,14.17,0,0,0,20.94,14.15V33.36L11.2,21.52A1.58,1.58,0,0,0,10,20.93H1.59A1.6,1.6,0,0,0,0,22.53V30.9a1.65,1.65,0,0,0,.36,1L24.15,60.85a1.14,1.14,0,0,0,.19.19,14.15,14.15,0,0,0,24.91-9.2v-19l.79.55a12.09,12.09,0,0,0,6.9,2.18H57A12.16,12.16,0,0,0,65.54,32,1.59,1.59,0,0,0,65.66,29.92Zm-44.72,22L3.19,30.33V24.12h6L20.94,38.39Zm25.12-.09a11,11,0,1,1-21.93,0V14.15A11,11,0,0,1,43.61,7.24l.22.3a10.82,10.82,0,0,1,2.23,6.61ZM61.74,31a9.21,9.21,0,0,1-11.83-2h0l-.66-.83V14.37l13,16.34Z"/><path d="M36.69,49.25h4.69a1.6,1.6,0,0,0,0-3.19H36.69V41.37a1.6,1.6,0,0,0-3.19,0v4.69H28.81a1.6,1.6,0,0,0,0,3.19H33.5v4.69a1.6,1.6,0,0,0,3.19,0Z"/><path d="M35.1,8.37a5.78,5.78,0,1,0,5.78,5.78A5.8,5.8,0,0,0,35.1,8.37Zm0,8.38a2.6,2.6,0,1,1,2.59-2.6A2.61,2.61,0,0,1,35.1,16.75Z"/></g></g></svg>
